src/img/icons/parking.svg

<svg width="32" height="32" viewBox="0 0 32 32" fill="none" xmlns="http://www.w3.org/2000/svg">
<path d="M11.5882 19.8235V26.7059C11.5882 27.3314 11.3647 27.8701 10.9176 28.3221C10.4705 28.774 9.92933 29 9.29412 29C8.66859 29 8.12985 28.774 7.67791 28.3221C7.22597 27.8701 7 27.3314 7 26.7059V5.29412C7 4.66859 7.22597 4.12985 7.67791 3.67791C8.12985 3.22597 8.66859 3 9.29412 3H16.9412C19.2646 3 21.2475 3.82104 22.8898 5.46312C24.5319 7.10545 25.3529 9.08833 25.3529 11.4118C25.3529 13.7352 24.5319 15.7181 22.8898 17.3604C21.2475 19.0025 19.2646 19.8235 16.9412 19.8235H11.5882ZM11.5882 15.2353H17.1293C18.1764 15.2353 19.0755 14.8598 19.8264 14.1089C20.5774 13.3579 20.9528 12.4589 20.9528 11.4118C20.9528 10.3646 20.5774 9.46559 19.8264 8.71465C19.0755 7.96371 18.1764 7.58824 17.1293 7.58824H11.5882V15.2353Z" fill="#131212"/>
</svg>

<svg xmlns="http://www.w3.org/2000/svg" viewBox="0 0 32 32">
  <path fill="currentColor" d="M11.588 19.823v6.883c0 .625-.223 1.164-.67 1.616A2.2 2.2 0 0 1 9.294 29a2.207 2.207 0 0 1-1.616-.678A2.207 2.207 0 0 1 7 26.706V5.294c0-.625.226-1.164.678-1.616C8.13 3.226 8.668 3 9.294 3h7.647c2.324 0 4.306.821 5.949 2.463 1.642 1.642 2.463 3.625 2.463 5.949 0 2.323-.821 4.306-2.463 5.948-1.643 1.643-3.625 2.463-5.949 2.463h-5.353Zm0-4.588h5.541c1.047 0 1.947-.375 2.697-1.126.751-.751 1.127-1.65 1.127-2.697 0-1.047-.376-1.946-1.127-2.697-.75-.751-1.65-1.127-2.697-1.127h-5.54v7.647Z"/>
</svg>
